src/images/header/logo.svg

<?xml version="1.0" encoding="UTF-8"?>
<svg width="130px" height="242px" viewBox="0 0 130 242" version="1.1" xmlns="http://www.w3.org/2000/svg" xmlns:xlink="http://www.w3.org/1999/xlink">
    <!-- Generator: Sketch 61.2 (89653) - https://sketch.com -->
    <title>Logo</title>
    <desc>Created with Sketch.</desc>
    <g id="HFD" stroke="none" stroke-width="1" fill="none" fill-rule="evenodd">
        <g id="Homepage" transform="translate(-120.000000, -70.000000)">
            <g id="Header" transform="translate(120.000000, 70.000000)">
                <g id="Logo">
                    <path d="M0,110.077209 C0,110.077209 22.0832261,60.4591654 63.3335198,54.6212346 C104.583086,48.7833039 127.916718,85.0527224 130,123 C125.833436,106.741872 103.946609,63.9306232 63.6928569,67.9247286 C28.8226144,71.3845397 0,110.077209 0,110.077209" id="Fill-27" fill="#FFFFFF" opacity="0.7"></path>
                    <path d="M61.7859377,98 C61.7859377,98 62.8720056,116.138805 44.1681513,137.397473 C27.059482,156.844302 0.507346518,169.347085 8.44607251,199 C11.3702137,178.326807 32.220675,176.152601 52.1097949,148.729305 C68.0528923,126.74736 61.7859377,98 61.7859377,98" id="Fill-28" fill="#FFFFFF" opacity="0.7"></path>
                    <path d="M76.4631905,88.8935266 C76.4631905,88.8935266 85.6320613,132.493562 69.3780879,158.63314 C75.8382056,133.329567 70.3508525,111.23348 70.3508525,111.23348 C70.3508525,111.23348 69.2485799,127.676129 62.8488507,147.340866 C59.2277216,158.466669 52.0705892,170.165628 47.0117764,181.635325 C34.312723,210.428215 40.5138249,242 40.5138249,242 C40.5138249,242 43.3884645,207.931152 59.8621649,185.120992 C68.8222224,172.713071 77.6760542,166.539046 83.9644648,157.93586 C93.7532275,144.545177 97.7839801,131.845202 98.9684684,117.92517 C102.024274,126.01069 102.858072,157.517493 86.4651321,185.399904 C117.097397,155.705297 112.096062,110.5362 97.3707188,86 C97.0236666,95.3406222 95.0781373,105.238338 90.2164967,120.574102 C86.7430648,102.032313 76.4631905,88.8935266 76.4631905,88.8935266" id="Fill-29" fill="#FFFFFF" opacity="0.7"></path>
                    <path d="M49,115 C49,115 47.0068451,119.481441 28.5831235,127.202286 C22.8441623,129.607648 18.6151887,132.924319 19.0277891,138.714952 C19.2265285,141.50809 21.6402046,144.782156 25.6970813,144.98868 C33.6128153,145.392342 47.0068451,134.992454 49,115" id="Fill-30" fill="#FFFFFF" opacity="0.7"></path>
                    <path d="M0,110.063398 C0,110.063398 10.9507454,88.4615332 36.8371821,98.8031493 C36.8371821,106.54613 45,113 45,113 C45,113 25.7439345,102.700724 0,110.063398" id="Fill-32" fill="#FFFFFF" opacity="0.7"></path>
                    <path d="M94.0746697,0 C94.0746697,0 100.887655,20.4194335 78.6816424,28.4112595 C75.3700472,29.603034 71.4505264,30.6626324 67.2212252,31.8259269 C74.479247,26.7995891 76.7066111,19.8495433 76.1517698,13.0286795 C74.8486564,17.6078828 69.8107268,25.0875088 47.6294384,32.355361 C45.4457054,33.0710099 43.4539489,33.9721432 41.6192641,34.99815 C42.0882976,32.5934238 42.0970239,30.7414998 42.0970239,30.7414998 C18.9914848,39.3227138 17.2862387,68.2108292 18.1755845,75 C18.1755845,75 28.8848208,57.6433245 56.5425307,50.0231247 C89.1734507,41.0329685 95.329789,34.1685816 98.1548982,23.966642 C101.443223,12.0946117 94.0746697,0 94.0746697,0" id="Fill-31" fill="#903232"></path>
                </g>
            </g>
        </g>
    </g>
</svg>

<?xml version="1.0" encoding="UTF-8"?>
<svg version="1.1" viewBox="0 0 130 242" xmlns="http://www.w3.org/2000/svg">
<title>Logo</title>
<desc>Created with Sketch.</desc>
<g fill="none" fill-rule="evenodd">
<g transform="translate(-120 -70)">
<g transform="translate(120 70)">
<path d="m0 110.08s22.083-49.618 63.334-55.456c41.25-5.8379 64.583 30.431 66.666 68.379-4.1666-16.258-26.053-59.069-66.307-55.075-34.87 3.4598-63.693 42.152-63.693 42.152" fill="#fff" opacity=".85"/>
<path d="m61.786 98s1.0861 18.139-17.618 39.397c-17.109 19.447-43.661 31.95-35.722 61.603 2.9241-20.673 23.775-22.847 43.664-50.271 15.943-21.982 9.6761-50.729 9.6761-50.729" fill="#fff" opacity=".85"/>
<path d="m76.463 88.894s9.1689 43.6-7.0851 69.74c6.4601-25.304 0.97276-47.4 0.97276-47.4s-1.1023 16.443-7.502 36.107c-3.6211 11.126-10.778 22.825-15.837 34.294-12.699 28.793-6.498 60.365-6.498 60.365s2.8746-34.069 19.348-56.879c8.9601-12.408 17.814-18.582 24.102-27.185 9.7888-13.391 13.82-26.091 15.004-40.011 3.0558 8.0855 3.8896 39.592-12.503 67.475 30.632-29.695 25.631-74.864 10.906-99.4-0.34705 9.3406-2.2926 19.238-7.1542 34.574-3.4734-18.542-13.753-31.681-13.753-31.681" fill="#fff" opacity=".85"/>
<path d="m49 115s-1.9932 4.4814-20.417 12.202c-5.739 2.4054-9.9679 5.722-9.5553 11.513 0.19874 2.7931 2.6124 6.0672 6.6693 6.2737 7.9157 0.40366 21.31-9.9962 23.303-29.989" fill="#fff" opacity=".85"/>
<path d="m0 110.06s10.951-21.602 36.837-11.26c0 7.743 8.1628 14.197 8.1628 14.197s-19.256-10.299-45-2.9366" fill="#fff" opacity=".85"/>
<path d="m94.075 0s6.813 20.419-15.393 28.411c-3.3116 1.1918-7.2311 2.2514-11.46 3.4147 7.258-5.0263 9.4854-11.976 8.9305-18.797-1.3031 4.5792-6.341 12.059-28.522 19.327-2.1837 0.71565-4.1755 1.6168-6.0102 2.6428 0.46903-2.4047 0.47776-4.2567 0.47776-4.2567-23.106 8.5812-24.811 37.469-23.921 44.259 0 0 10.709-17.357 38.367-24.977 32.631-8.9902 38.787-15.855 41.612-26.056 3.2883-11.872-4.0802-23.967-4.0802-23.967" fill="#903232"/>
</g>
</g>
</g>
</svg>
